lib/build/svg/brand/telegram.svg

<svg fill="none" height="24" viewBox="0 0 24 24" width="24" xmlns="http://www.w3.org/2000/svg" xmlns:xlink="http://www.w3.org/1999/xlink"><linearGradient id="a" gradientUnits="userSpaceOnUse" x1="12" x2="12" y1="2" y2="21.8517"><stop offset="0" stop-color="#2aabee"/><stop offset="1" stop-color="#229ed9"/></linearGradient><path d="m12 22c5.5228 0 10-4.4772 10-10 0-5.52285-4.4772-10-10-10-5.52285 0-10 4.47715-10 10 0 5.5228 4.47715 10 10 10z" fill="url(#a)"/><path clip-rule="evenodd" d="m6.5266 11.8945c2.9152-1.2701 4.8591-2.10748 5.8318-2.51204 2.7771-1.15509 3.3541-1.35574 3.7303-1.36237.0827-.00146.2676.01904.3875.11626.1011.08209.129.19299.1423.27082s.0299.25513.0167.39366c-.1505 1.58127-.8017 5.41847-1.133 7.18947-.1401.7494-.4161 1.0007-.6834 1.0253-.5807.0534-1.0216-.3838-1.5841-.7525-.8801-.577-1.3774-.9361-2.2317-1.4991-.9873-.6506-.3472-1.0082.2154-1.5926.1473-.153 2.7059-2.4803 2.7555-2.6914.0061-.0264.0119-.1248-.0466-.1768-.0584-.0519-.1447-.0342-.207-.02-.0883.02-1.4943.9493-4.21808 2.7879-.39909.2741-.76058.4076-1.08446.4006-.35705-.0077-1.04388-.2019-1.55446-.3678-.62625-.2036-1.12398-.3112-1.08064-.657.02258-.18.27055-.3642.74394-.5524z" fill="#fff" fill-rule="evenodd"/></svg>

<svg width="24" height="24" viewBox="0 0 24 24" fill="none" xmlns="http://www.w3.org/2000/svg">
<path d="M12 22C17.5228 22 22 17.5228 22 12C22 6.47715 17.5228 2 12 2C6.47715 2 2 6.47715 2 12C2 17.5228 6.47715 22 12 22Z" fill="url(#paint0_linear_10562_2955)"/>
<path fill-rule="evenodd" clip-rule="evenodd" d="M6.5266 11.8945C9.4418 10.6244 11.3857 9.78702 12.3584 9.38246C15.1355 8.22737 15.7125 8.02672 16.0887 8.02009C16.1714 8.01863 16.3563 8.03913 16.4762 8.13635C16.5773 8.21844 16.6052 8.32934 16.6185 8.40717C16.6318 8.485 16.6484 8.6623 16.6352 8.80083C16.4847 10.3821 15.8335 14.2193 15.5022 15.9903C15.3621 16.7397 15.0861 16.991 14.8188 17.0156C14.2381 17.069 13.7972 16.6318 13.2347 16.2631C12.3546 15.6861 11.8573 15.327 11.003 14.764C10.0157 14.1134 10.6558 13.7558 11.2184 13.1714C11.3657 13.0184 13.9243 10.6911 13.9739 10.48C13.98 10.4536 13.9858 10.3552 13.9273 10.3032C13.8689 10.2513 13.7826 10.269 13.7203 10.2832C13.632 10.3032 12.226 11.2325 9.50222 13.0711C9.10313 13.3452 8.74164 13.4787 8.41776 13.4717C8.06071 13.464 7.37388 13.2698 6.8633 13.1039C6.23705 12.9003 5.73932 12.7927 5.78266 12.4469C5.80524 12.2669 6.05321 12.0827 6.5266 11.8945Z" fill="white"/>
<defs>
<linearGradient id="paint0_linear_10562_2955" x1="12" y1="2" x2="12" y2="21.8517" gradientUnits="userSpaceOnUse">
<stop stop-color="#2AABEE"/>
<stop offset="0.0001" stop-color="#2AABEE"/>
<stop offset="1" stop-color="#229ED9"/>
</linearGradient>
</defs>
</svg>
